X:1
T:I Am Happy in Him
T:I Am Happy in Him
T:Edward Othello Excell
T:Edward Othello Excell, 1902
T:Public Domain Courtesy of the Cyber Hymnal™
T:Public Domain Courtesy of the Cyber Hymnal™
C:Edward Othello Excell
Z:Public Domain
Z:Courtesy of the Cyber Hymnal™
%%score ( 1 2 ) ( 3 4 )
L:1/8
Q:1/4=102
M:9/8
K:Eb
V:1 treble 
V:2 treble 
V:3 bass 
V:4 bass 
V:1
 [G,B,] | (z [B,G])[A,F] [B,G][EG]<[DB] [CA] x5 | z [G,E]3- [G,E]2 [EG] x2 | %3
w: 1.~My|* soul is so hap- py|* * in|
w: 2.~He|* sought me so long ere|* * I|
w: 3.~His|* love and His mer- cy|* * sur-|
w: 4.~They|* say I shall some day|* * be|
 (z [DB])[CA] [B,G][A,F]<[B,G] [A,F] x2 | z [G,E]3- [G,E]2 [G,B,] x2 | %5
w: * Je- sus, For He is|* * so|
w: * knew Him, When wand- ’ring|* * a-|
w: * round me, His grace like|* * a|
w: * like Him, My cross and|* * my|
 z [B,G][A,F] [B,G][EG]<[DB] [CA] x5 | z [G,E]3- [G,E]2 [B,G] x2 | %7
w: * pre- cious * to me;|* * His|
w: * far from * the fold;|* * Safe|
w: * riv- er * doth flow;|* * His|
w: * bur- den * lay down;|* * Till|
 (z [A,F])[A,G] [A,F][_A,C]>[_A,D] [A,E] x5 | [A,-B,F-]3 [A,-C]3 [A,DF]3 || %9
w: * voice it is mu- sic||
w: * home in His arms He||
w: * Spir- it, to guide and||
w: * then I will ev- er||
"^Refrain" [B,E]2 [B,E] [B,E]<[B,B][B,E] | [B,D]6 | [DB]2 [DB] [DB]<[DF][Ac] | [EG]3- [EG]2 [GB] | %13
w: to hear it, His face|it|is heav- en to see.||
w: hath bro’t me, To where|there|are plea- sures un- told.|I * am|
w: to com- fort, Is with|me|wher- ev- er I go.||
w: be faith- ful, In gath-|er-|ing gems for His crown.||
 [Ge]>[Ad][Ee] [EF]2 [EB] | [DB]>[Dc][DB] [CE]2 [DB] | [Ee]2 [EG] [DF]<[DG][DF] | E3- E2 |] %17
w: ||||
w: hap- py in Him, I|am hap- py in Him;|My soul with de- light|He *|
w: ||||
w: ||||
V:2
 x | G3- B,B, x7 | (G3 B,B,) x4 | B3- DD x4 | E3 G,G, x4 | G3- B,B, x7 | (G3 B,B,) x4 | %7
 F3- =A,=A, x7 | x9 || x6 | x6 | x6 | x6 | x6 | x6 | x6 | E3- E2 |] %17
V:3
 G, | (B,3- B,)A,B, E<DC x3 | B,3 [E,G,-]3 G,2 E | D3- DCB, A,<B,A, | G,3- [E,G,-]3 [E,G,]2 G, | %5
 B,3- B,A,B, E<DC x3 | B,3 [E,G,-]3 G,2 B, | =A,3- A,A,A, A,>A,A, x3 | [B,,A,]6- [B,,A,]3 || %9
 [E,G,]3- [E,G,]2 [E,G,] | [F,A,]<[F,A,][B,,A,] [A,B,]3 | [B,,A,]3- [B,,A,]2 [B,,D] | %12
 [C,E]<[G,E][B,E] [E,E]2 [E,B,] | [E,B,]>[F,B,][G,B,] [A,C]2 [G,B,] | %14
 [F,A,]>[B,,A,][B,,A,] [C,G,]2 [B,,A,] | [E,G,]2 [E,B,] [B,,A,]<[B,,B,][B,,A,] | %16
 [E,G,]3- [E,G,]2 |] %17
V:4
 x | E,,6 E,3 [E,,E,]3 | E,,6 [E,,E,]3 | [B,,,B,,]6 [B,,,B,,]3 | E,,6 x3 | E,,6 E,3 [E,,E,]3 | %6
 E,,6 [E,,E,]3 | F,,6 E,3 [F,,E,]3 | x9 || x6 | x6 | x6 | x6 | x6 | x6 | x6 | x5 |] %17

